COLOR/action 16/16/package-purge.svg

<svg height="16" width="16" xmlns="http://www.w3.org/2000/svg"><path d="m2.711865 3.118645h10.644068v10.237288h-10.644068z" fill="#fff"/><path d="m5.326172.00000046c-1.67759.0195-2.906496-.0401581-3.910156.51367188-.50183.27685999-.897628.74519816-1.117188 1.33007816s-.298828 1.27944-.298828 2.15625v7.9999995c0 .87681.07925 1.57137.298828 2.15625.21956.58488.615358 1.053218 1.117188 1.330078 1.00366.55376 2.232566.494242 3.910156.513672h.0039 5.339844.0039c1.67759-.0195 2.904543.04016 3.908203-.513672.50183-.27686.897628-.745198 1.117188-1.330078.219984-.58488.300783-1.27944.300783-2.15625v-7.9999995c0-.87681-.07925-1.57136-.298828-2.15625-.21955-.58488-.615358-1.05319817-1.117188-1.33007816-1.00366-.55379-2.232556-.49431188-3.910156-.51367188h-.00391-2.0039063-3.3359377zm-.826172 3.79296884 3.5000001 3.5 3.4999999-3.5.707031.7070312-3.4999997 3.5 3.4999997 3.4999995-.707031.707031-3.4999999-3.4999993-3.5000001 3.4999993-.707031-.707031 3.4999999-3.4999995-3.4999999-3.5z" fill="#f22c42"/><path d="m5.326172.00000046c-1.67759.0195-2.906496-.0401581-3.910156.51367188-.50183.27685998-.897628.74519816-1.117188 1.33007816s-.298828 1.27944-.298828 2.15625v.5c0-.87681.07927-1.57137.298828-2.15625.21956-.58488.615358-1.0532181 1.117188-1.3300781 1.00366-.55383009 2.232566-.49417194 3.910156-.51367194h.0039 3.3359375 2.0039065.0039c1.6776.01936 2.906496-.0401182 3.910156.51367194.50183.27688.897638.7451981 1.117188 1.3300781.219582.58489.29883 1.27944.29883 2.15625v-.5c0-.87681-.07925-1.57136-.298828-2.15625-.21955-.58488-.615358-1.05319818-1.117188-1.33007816-1.00366-.55379-2.232556-.49431188-3.910156-.51367188h-.0039-2.0039063-3.3359377z" fill="#fff" opacity=".3"/><path d="m10.673828 16c1.67759-.0195 2.906496.04016 3.910156-.513672.50183-.27686.897628-.745198 1.117188-1.330078s.298828-1.27944.298828-2.15625v-.5c0 .87681-.07927 1.57137-.298828 2.15625-.21956.58488-.615358 1.053218-1.117188 1.330078-1.00366.55383-2.232566.494172-3.910156.513672h-.0039-3.3359373-2.0039067-.0039c-1.67761-.01936-2.906506.04012-3.910166-.513672-.50183-.27688-.897638-.745198-1.117188-1.330078-.219582-.58489-.29883-1.27944-.29883-2.15625v.5c0 .87681.07925 1.57136.298828 2.15625.21955.58488.615358 1.053198 1.117188 1.330078 1.00366.55379 2.232556.494312 3.910156.513672h.0039 2.0039065 3.3359375z" opacity=".2"/></svg>

<?xml version="1.0" encoding="UTF-8" standalone="no"?>
<svg
   xmlns:dc="http://purl.org/dc/elements/1.1/"
   xmlns:cc="http://creativecommons.org/ns#"
   xmlns:rdf="http://www.w3.org/1999/02/22-rdf-syntax-ns#"
   xmlns:svg="http://www.w3.org/2000/svg"
   xmlns="http://www.w3.org/2000/svg"
   xmlns:sodipodi="http://sodipodi.sourceforge.net/DTD/sodipodi-0.dtd"
   xmlns:inkscape="http://www.inkscape.org/namespaces/inkscape"
   height="16"
   width="16"
   version="1.1"
   id="svg4"
   sodipodi:docname="package-purge.svg"
   inkscape:version="0.92.4 (5da689c313, 2019-01-14)">
  <metadata
     id="metadata10">
    <rdf:RDF>
      <cc:Work
         rdf:about="">
        <dc:format>image/svg+xml</dc:format>
        <dc:type
           rdf:resource="http://purl.org/dc/dcmitype/StillImage" />
      </cc:Work>
    </rdf:RDF>
  </metadata>
  <defs
     id="defs8" />
  <sodipodi:namedview
     pagecolor="#ffffff"
     bordercolor="#808080"
     borderopacity="1"
     objecttolerance="10"
     gridtolerance="10"
     guidetolerance="10"
     inkscape:pageopacity="0"
     inkscape:pageshadow="2"
     inkscape:window-width="1920"
     inkscape:window-height="1016"
     id="namedview6"
     showgrid="false"
     inkscape:zoom="14.75"
     inkscape:cx="8"
     inkscape:cy="8"
     inkscape:window-x="0"
     inkscape:window-y="27"
     inkscape:window-maximized="1"
     inkscape:current-layer="svg4" />
  <rect
     style="opacity:1;fill:#ffffff;fill-opacity:1;stroke:none;stroke-opacity:1"
     id="rect817"
     width="10.644068"
     height="10.237288"
     x="2.7118647"
     y="3.1186445" />
  <path
     inkscape:connector-curvature="0"
     style="fill:#f22c42;fill-opacity:1"
     d="m 5.326172,4.6e-7 c -1.67759,0.0195 -2.906496,-0.0401581 -3.910156,0.51367188 C 0.914186,0.79053233 0.518388,1.2588705 0.298828,1.8437505 0.079268,2.4286305 0,3.1231905 0,4.0000005 V 12 c 0,0.87681 0.07925,1.57137 0.298828,2.15625 0.21956,0.58488 0.615358,1.053218 1.117188,1.330078 C 2.419676,16.040088 3.648582,15.98057 5.326172,16 h 0.0039 5.339844 0.0039 c 1.67759,-0.0195 2.904543,0.04016 3.908203,-0.513672 0.50183,-0.27686 0.897628,-0.745198 1.117188,-1.330078 C 15.919191,13.57137 15.99999,12.87681 15.99999,12 V 4.0000005 c 0,-0.87681 -0.07925,-1.57136 -0.298828,-2.15625 C 15.481612,1.2588705 15.085804,0.79055233 14.583974,0.51367234 13.580314,-0.04011766 12.351418,0.01936046 10.673818,4.6e-7 H 10.669908 8.6660017 5.330064 Z M 4.5,3.7929693 l 3.5000001,3.5 3.4999999,-3.5 0.707031,0.7070312 -3.4999997,3.5 L 12.207031,11.5 11.5,12.207031 8.0000001,8.7070317 4.5,12.207031 3.792969,11.5 7.2929689,8.0000005 l -3.4999999,-3.5 z"
     id="path2-3" />
  <path
     d="m 5.326172,4.6e-7 c -1.67759,0.0195 -2.906496,-0.0401581 -3.910156,0.51367188 C 0.914186,0.79053232 0.518388,1.2588705 0.298828,1.8437505 0.079268,2.4286305 0,3.1231905 0,4.0000005 v 0.5 c 0,-0.87681 0.07927,-1.57137 0.298828,-2.15625 0.21956,-0.58488 0.615358,-1.0532181 1.117188,-1.3300781 1.00366,-0.55383009 2.232566,-0.49417194 3.910156,-0.51367194 h 0.0039 3.3359375 2.0039065 0.0039 c 1.6776,0.01936 2.906496,-0.0401182 3.910156,0.51367194 0.50183,0.27688 0.897638,0.7451981 1.117188,1.3300781 0.219582,0.58489 0.29883,1.27944 0.29883,2.15625 v -0.5 c 0,-0.87681 -0.07925,-1.57136 -0.298828,-2.15625 C 15.481612,1.2588705 15.085804,0.79055232 14.583974,0.51367234 13.580314,-0.04011766 12.351418,0.01936046 10.673818,4.6e-7 H 10.669918 8.6660117 5.330074 Z"
     id="path819"
     inkscape:connector-curvature="0"
     sodipodi:nodetypes="ccsscscccccccccsccccccc"
     style="opacity:0.3;fill:#ffffff;fill-opacity:1" />
  <path
     style="opacity:0.2;fill:#000000;fill-opacity:1"
     sodipodi:nodetypes="ccsscscccccccccsccccccc"
     inkscape:connector-curvature="0"
     id="path824"
     d="m 10.673828,16 c 1.67759,-0.0195 2.906496,0.04016 3.910156,-0.513672 0.50183,-0.27686 0.897628,-0.745198 1.117188,-1.330078 C 15.920732,13.57137 16,12.87681 16,12 v -0.5 c 0,0.87681 -0.07927,1.57137 -0.298828,2.15625 -0.21956,0.58488 -0.615358,1.053218 -1.117188,1.330078 C 13.580324,15.540158 12.351418,15.4805 10.673828,15.5 H 10.669928 7.3339907 5.330084 5.326184 C 3.648574,15.48064 2.419678,15.54012 1.416018,14.986328 0.914188,14.709448 0.51838,14.24113 0.29883,13.65625 0.079248,13.07136 0,12.37681 0,11.5 V 12 c 0,0.87681 0.07925,1.57136 0.298828,2.15625 0.21955,0.58488 0.615358,1.053198 1.117188,1.330078 C 2.419676,16.040118 3.648572,15.98064 5.326172,16 h 0.0039 2.0039065 3.3359375 z" />
</svg>
